build/img/footer-logo.svg

<svg width="192" height="21" viewBox="0 0 192 21" fill="none" xmlns="http://www.w3.org/2000/svg"
                        class="footer-logo">
                        <path
                            d="M15.0769 1.84618V12.4616C15.0769 16 13.5385 17.4616 9.84616 17.4616C6.15385 17.4616 4.61539 16 4.61539 12.4616V1.38464H1.07693C0.846156 1.38464 0.615387 1.61541 0.615387 1.84618V12.6154C0.615387 18.5385 4.38462 20.6154 9.84616 20.6154C15.3077 20.6154 19.0769 18.5385 19.0769 12.6154V1.38464H15.5385C15.3077 1.38464 15.0769 1.53849 15.0769 1.84618Z"
                            fill="white" />
                        <path
                            d="M66.5385 4.46157C66.8461 4.46157 67 4.38464 67.0769 4.15387L68.0769 1.61541C68.1538 1.46157 68.0769 1.38464 67.9231 1.38464H53.6154C52.3077 1.38464 51.7692 1.76926 51.7692 2.69234V19.1539C51.7692 19.9231 52.1538 20.3077 53.1538 20.3077H66.4615C66.7692 20.3077 66.9231 20.2308 67 20L68 17.4616C68.0769 17.3077 68 17.2308 67.8461 17.2308H55.6923V13.8462C55.6923 12.6923 56.3077 12.1539 58.0769 12.1539H63.3846C63.6923 12.1539 63.8461 12.077 63.9231 11.8462L64.9231 9.38464C65 9.2308 64.9231 9.15387 64.7692 9.15387H55.7692V4.38464H66.5385V4.46157Z"
                            fill="white" />
                        <path fill-rule="evenodd" clip-rule="evenodd"
                            d="M41.3846 10.3077C42.9231 9.46155 43.5385 8 43.5385 6.15393C43.5385 2 40.1539 1.38464 36.6154 1.38464H28.5385C27.2308 1.38464 26.6923 1.76929 26.6923 2.69238V19.1539C26.6923 19.9231 27.0769 20.3077 28.0769 20.3077H38C41.7693 20.3077 44.3846 18.8462 44.3846 15.0769C44.4615 12.7693 43.5385 10.8462 41.3846 10.3077ZM30.6923 4.38464H36.9231C39 4.38464 39.6154 5.15393 39.6154 6.76929C39.6154 8.38464 39 9.15393 36.9231 9.15393H30.6923V4.38464ZM30.6923 17.2307H37.6923C39.9231 17.2307 40.5385 16.4615 40.5385 14.6923C40.5385 12.9231 39.9231 12.0769 37.6923 12.0769H33.0769C31.3077 12.0769 30.6923 12.6154 30.6923 13.7692V17.2307Z"
                            fill="white" />
                        <path fill-rule="evenodd" clip-rule="evenodd"
                            d="M88.6154 12.6924L92.8462 20C92.9231 20.0769 92.9231 20.3077 92.7692 20.3077H89.1538C88.8462 20.3077 88.7692 20.2308 88.6154 20L84.7692 13.0769H81.3077C79.5385 13.0769 78.9231 13.6154 78.9231 14.7693V20.3077H75.4615C75.2308 20.3077 75 20.0769 75 19.8462V2.69238C75 1.76929 75.5385 1.38464 76.8462 1.38464H84.9231C89.6154 1.38464 92.4615 2.61536 92.4615 7.23083C92.4615 10.7693 90.6923 12.1539 88.6154 12.6924ZM78.8462 10.1539H85.4615C87.9231 10.1539 88.4615 9.23083 88.4615 7.23083C88.4615 5.30774 87.9231 4.38464 85.4615 4.38464H78.8462V10.1539Z"
                            fill="white" />
                        <path
                            d="M122.308 18.6154L122.231 20.3077H108.231V1.38464H121.692L121.769 3.15387H110.154V9.69234H120.154V11.2308H110.154V18.6154H122.308Z"
                            fill="#57AD56" stroke="#57AD56" stroke-width="0.25" />
                        <path fill-rule="evenodd" clip-rule="evenodd"
                            d="M133.923 15.3846H145.077L147.231 20.3077H149.385L140.692 1.38464H138.462L129.692 20.3077H131.769L133.923 15.3846ZM134.615 13.7693L138.692 4.61548L139.462 2.69238H139.538L140.308 4.61548L144.308 13.7693H134.615Z"
                            fill="#57AD56" />
                        <path
                            d="M145.077 15.3846L145.191 15.3345L145.159 15.2596H145.077V15.3846ZM133.923 15.3846V15.2596H133.841L133.809 15.3345L133.923 15.3846ZM147.231 20.3077L147.116 20.3578L147.149 20.4327H147.231V20.3077ZM149.385 20.3077V20.4327H149.58L149.498 20.2556L149.385 20.3077ZM140.692 1.38464L140.806 1.33247L140.772 1.25964H140.692V1.38464ZM138.462 1.38464V1.25964H138.382L138.348 1.33209L138.462 1.38464ZM129.692 20.3077L129.579 20.2552L129.497 20.4327H129.692V20.3077ZM131.769 20.3077V20.4327H131.851L131.884 20.3578L131.769 20.3077ZM138.692 4.61548L138.807 4.66637L138.808 4.6619L138.692 4.61548ZM134.615 13.7693L134.501 13.7184L134.423 13.8943H134.615V13.7693ZM139.462 2.69238V2.56738H139.377L139.345 2.64596L139.462 2.69238ZM139.538 2.69238L139.655 2.64596L139.623 2.56738H139.538V2.69238ZM140.308 4.61548L140.192 4.66193L140.193 4.66553L140.308 4.61548ZM144.308 13.7693V13.8943H144.499L144.422 13.7192L144.308 13.7693ZM145.077 15.2596H133.923V15.5096H145.077V15.2596ZM147.345 20.2576L145.191 15.3345L144.962 15.4347L147.116 20.3578L147.345 20.2576ZM149.385 20.1827H147.231V20.4327H149.385V20.1827ZM140.579 1.43682L149.271 20.3599L149.498 20.2556L140.806 1.33247L140.579 1.43682ZM138.462 1.50964H140.692V1.25964H138.462V1.50964ZM129.806 20.3603L138.575 1.4372L138.348 1.33209L129.579 20.2552L129.806 20.3603ZM131.769 20.1827H129.692V20.4327H131.769V20.1827ZM133.809 15.3345L131.655 20.2576L131.884 20.3578L134.038 15.4347L133.809 15.3345ZM138.578 4.56462L134.501 13.7184L134.73 13.8201L138.807 4.66634L138.578 4.56462ZM139.345 2.64596L138.576 4.56906L138.808 4.6619L139.578 2.73881L139.345 2.64596ZM139.538 2.56738H139.462V2.81738H139.538V2.56738ZM140.424 4.56905L139.655 2.64596L139.422 2.73881L140.192 4.6619L140.424 4.56905ZM144.422 13.7192L140.422 4.56543L140.193 4.66553L144.193 13.8193L144.422 13.7192ZM134.615 13.8943H144.308V13.6443H134.615V13.8943Z"
                            fill="#57AD56" />
                        <path
                            d="M163.231 3.15387V20.3077H161.308V3.15387H154.231L154.308 1.38464H170.385V3.15387H163.231Z"
                            fill="#57AD56" stroke="#57AD56" stroke-width="0.25" />
                        <path
                            d="M184.077 20.6923C181.462 20.6923 179.385 20.0769 177.692 19.0769L178 17.3846C179.769 18.3846 181.769 19 184.154 19C187.692 19 189.538 17.3846 189.538 15.0769C189.538 10.0769 178 12.6923 178 6.23077C178 3.46154 180.077 1 184.923 1C187.154 1 189.154 1.38462 190.769 2.15385L190.462 3.76923C188.692 3.07692 187 2.69231 185 2.69231C181.231 2.69231 179.846 4.38462 179.846 6.07692C179.846 10.8462 191.385 8.15385 191.385 14.9231C191.308 18.3077 188.846 20.6923 184.077 20.6923Z"
                            fill="#57AD56" stroke="#57AD56" stroke-width="0.25" />
                    </svg>

<svg width="192" height="21" viewBox="0 0 192 21" fill="none" xmlns="http://www.w3.org/2000/svg" class="footer-logo"><path d="M15.077 1.846v10.616c0 3.538-1.538 5-5.23 5-3.693 0-5.232-1.462-5.232-5V1.385H1.077c-.23 0-.462.23-.462.461v10.77c0 5.922 3.77 8 9.231 8 5.462 0 9.23-2.078 9.23-8V1.384H15.54c-.231 0-.462.153-.462.461zm51.461 2.616c.308 0 .462-.077.539-.308l1-2.539c.077-.153 0-.23-.154-.23H53.615c-1.307 0-1.846.384-1.846 1.307v16.462c0 .77.385 1.154 1.385 1.154H66.46c.308 0 .462-.077.539-.308l1-2.538c.077-.154 0-.231-.154-.231H55.692v-3.385c0-1.154.616-1.692 2.385-1.692h5.308c.307 0 .461-.077.538-.308l1-2.461c.077-.154 0-.231-.154-.231h-9v-4.77h10.77v.078z" fill="#fff"/><path fill-rule="evenodd" clip-rule="evenodd" d="M41.385 10.308c1.538-.846 2.154-2.308 2.154-4.154 0-4.154-3.385-4.77-6.924-4.77h-8.077c-1.307 0-1.846.385-1.846 1.308v16.462c0 .77.385 1.154 1.385 1.154H38c3.77 0 6.385-1.462 6.385-5.231.077-2.308-.846-4.23-3-4.77zM30.692 4.385h6.231c2.077 0 2.692.769 2.692 2.384 0 1.616-.615 2.385-2.692 2.385h-6.23v-4.77zm0 12.846h7c2.231 0 2.846-.77 2.846-2.539 0-1.769-.615-2.615-2.846-2.615h-4.615c-1.77 0-2.385.538-2.385 1.692v3.462zm57.923-4.539L92.846 20c.077.077.077.308-.077.308h-3.615c-.308 0-.385-.077-.539-.308l-3.846-6.923h-3.461c-1.77 0-2.385.538-2.385 1.692v5.539h-3.462a.496.496 0 0 1-.461-.462V2.692c0-.923.538-1.307 1.846-1.307h8.077c4.692 0 7.538 1.23 7.538 5.846 0 3.538-1.769 4.923-3.846 5.461zm-9.769-2.538h6.615c2.462 0 3-.923 3-2.923 0-1.923-.538-2.846-3-2.846h-6.615v5.769z" fill="#fff"/><path d="M122.308 18.615l-.077 1.693h-14V1.385h13.461l.077 1.769h-11.615v6.538h10v1.539h-10v7.384h12.154z" fill="#57AD56" stroke="#57AD56" stroke-width=".25"/><path fill-rule="evenodd" clip-rule="evenodd" d="M133.923 15.385h11.154l2.154 4.923h2.154l-8.693-18.923h-2.23l-8.77 18.923h2.077l2.154-4.923zm.692-1.616l4.077-9.154.77-1.923h.076l.77 1.923 4 9.154h-9.693z" fill="#57AD56"/><path d="M145.077 15.385l.114-.05-.032-.075h-.082v.125zm-11.154 0v-.125h-.082l-.032.075.114.05zm13.308 4.923l-.115.05.033.075h.082v-.125zm2.154 0v.125h.195l-.082-.177-.113.052zm-8.693-18.923l.114-.053-.034-.072h-.08v.125zm-2.23 0V1.26h-.08l-.034.072.114.053zm-8.77 18.923l-.113-.053-.082.178h.195v-.125zm2.077 0v.125h.082l.033-.075-.115-.05zm6.923-15.693l.115.051.001-.004-.116-.047zm-4.077 9.154l-.114-.05-.078.175h.192v-.125zm4.847-11.077v-.125h-.085l-.032.079.117.046zm.076 0l.117-.046-.032-.079h-.085v.125zm.77 1.923l-.116.047.001.004.115-.05zm4 9.154v.125h.191l-.077-.175-.114.05zm.769 1.49h-11.154v.25h11.154v-.25zm2.268 4.999l-2.154-4.923-.229.1 2.154 4.923.229-.1zm2.04-.075h-2.154v.25h2.154v-.25zm-8.806-18.746l8.692 18.923.227-.104-8.692-18.924-.227.105zm-2.117.073h2.23v-.25h-2.23v.25zm-8.656 18.85l8.769-18.923-.227-.105-8.769 18.923.227.105zm1.963-.177h-2.077v.25h2.077v-.25zm2.04-4.848l-2.154 4.923.229.1 2.154-4.923-.229-.1zm4.769-10.77l-4.077 9.153.229.102 4.077-9.154-.229-.101zm.767-1.919l-.769 1.923.232.093.77-1.923-.233-.093zm.193-.079h-.076v.25h.076v-.25zm.886 2.002l-.769-1.923-.233.093.77 1.923.232-.093zm3.998 9.15l-4-9.154-.229.1 4 9.154.229-.1zm-9.807.175h9.693v-.25h-9.693v.25z" fill="#57AD56"/><path d="M163.231 3.154v17.154h-1.923V3.154h-7.077l.077-1.77h16.077v1.77h-7.154zm20.846 17.538c-2.615 0-4.692-.615-6.385-1.615l.308-1.692A12.2 12.2 0 0 0 184.154 19c3.538 0 5.384-1.615 5.384-3.923 0-5-11.538-2.385-11.538-8.846C178 3.46 180.077 1 184.923 1c2.231 0 4.231.385 5.846 1.154l-.307 1.615C188.692 3.077 187 2.692 185 2.692c-3.769 0-5.154 1.693-5.154 3.385 0 4.77 11.539 2.077 11.539 8.846-.077 3.385-2.539 5.77-7.308 5.77z" fill="#57AD56" stroke="#57AD56" stroke-width=".25"/></svg>
